X:1
T:Kilmorey, 76.76 D
T:Kilmorey, 76.76 D
T:John Ambrose Lloyd (1840-1914)
T:Public Domain Courtesy of the Cyber Hymnal™
C:John Ambrose Lloyd (1840-1914)
Z:Public Domain
Z:Courtesy of the Cyber Hymnal™
%%score ( 1 2 ) ( 3 4 )
L:1/8
Q:1/4=110
M:4/4
K:Bb
V:1 treble 
V:2 treble 
V:3 bass 
V:4 bass 
V:1
 [DG]2 | [DG]3 [DA] [DB]2 [Gc]2 | [Gd]4 [^FA]2 [FA]2 | [GB]3 [^FA] G2 [GB]2 | [^FA]6 [DF]2 | %5
 [DG]3 [^FA] [GB]2 [=Fc]2 | [Fd]4 [GB]2 [Fd]2 | [Gd]2 [Gc]2 [FB]2 [FA]2 | [FB]6 [Fd]2 | %9
 [Fd]3 [Fc] [FB]2 [Fd]2 | [Fc]4 [FA]2 [EA]2 | [DB]3 [^FA] G2 [GB]2 | [^FA]6 [DF]2 | %13
 [DG]3 [^FA] [GB]2 [Gc]2 | [Gd]4 [^Fe]2 [Gd]2 | [Gd]2 [Gc]2 [GB]2 [^FA]2 | G6 |] %17
V:2
 x2 | x8 | x8 | x4 G2 x2 | x8 | x8 | x8 | x8 | x8 | x8 | x8 | x4 G2 x2 | x8 | x8 | x8 | x8 | G6 |] %17
V:3
 [G,B,]2 | [G,B,]3 [^F,C] [G,B,]2 [E,G,]2 | [E,G,]2 [D,A,]4 [D,D]2 | [D,C]3 [G,B,] [A,C]2 [B,D]2 | %4
 [D,D]6 [D,A,]2 | [B,,D]3 [D,D] [G,D]2 [A,C]2 | B,4 [G,D]2 [D,B,]2 | [E,B,]2 [E,C]2 [F,D]2 [F,E]2 | %8
 [B,,D]6 [B,,B,]2 | B,3 [F,A,] [D,B,]2 [B,,B,]2 | [F,A,]4 [F,C]2 [^F,C]2 | %11
 [G,B,]3 [D,D] [B,,D]2 [G,,D]2 | [D,D]6 [C,A,]2 | [B,,D]3 [D,D] [G,D]2 [E,C]2 | %14
 [D,B,]4 [C,A,]2 [B,,D]2 | [B,,D]2 [C,E]2 [D,D]2 [D,C]2 | [G,B,]6 |] %17
V:4
 x2 | x8 | x8 | x8 | x8 | x8 | B,4 x4 | x8 | x8 | B,3 x5 | x8 | x8 | x8 | x8 | x8 | x8 | x6 |] %17

